!!!COM: Robert Franz
!!!CNT: Deutscher
!!!TXO: Deutsche 
!!!OTL: Blatter lasst die Blume fallen
!!!OPS: Op. 30
!!!ONM: No. 2
!!!ONB: Original key: g minor
!!!LYR: Petofi
!!!ENC: Brian Bice
!!!YOR: Vocal Album, G. Schirmer, Inc., 1907
!!!ODT: 1870/
!!NB: Vocal melody and text only encoded.
**kern	**silbe
*clefG2	*
*k[f#]	*
*M4/4	*
=1	=1
{8B	{Bla2t-
8e	-ter
8g	la2sst
8f#	die
8e	Blu-
8d#	-me
8f#	fal-
8e}	-len,}
=2	=2
{8dn	{und
8g	vom
8b	Lieb-
8a	-chen
8g	muss
8f#	ich
8a	wal-
8g}	-len.}
=3	=3
{(8b	{Gott
16dd)	|
16cc	mit
8b	dir,
8a	du
(8g	klei-
8a)	|
4b}	-nes,}
=4	=4
{(8g	{Gott
16b)	|
16a	mit
8g	dir,
8f#	du
(8e	fei-
8f#)	|
4g}	-nes,}
=5	=5
{(4dd	{su2-
8g)	|
8a	-sses
4b	Ta2ub-
8a}	-chen}
8r	.
=7	=7
{8B	{Gelb
8e	steigt
8g	auf
8f#	der
8e	Mond
8d#	der
8f#	Hai-
8e}	-de}
=8	=8
{8dn	{wir
8g	sind
8b	blass
8a	auch
8g	al-
8f#	-le
8a	Bei-
8g}	-de}
=9	=9
{(8b	{Gott
16dd)	|
16cc	mit
8b	dur,
8a	du
(8g	klei-
8a)	|
4b}	-nes,}
=10	=10
{(8g	{Gott
16b)	|
16a	mit
8g	dir,
8f#	du
(8e	fei-
8f#)	|
4g}	-nes,}
=11	=11
{(4dd	{su2-
8g)	|
8a	-sses
4b	Tau2b-
8a}	-chen.}
8r	.
=13	=13
{8B	{Thau
8e	fa2llt
8g	auf
8f#	den
8e	Ast,
8d#	der
8f#	tro-
8e}	-cken,}
=14	=14
{8dn	{uns
8g	im
8b	Aug'
8a	die
8g	Thra2-
8f#	-nen
(8a	sto-
8g)}	-cken.}
=15	=15
{(8b	{Gott
16dd)	|
16cc	mit
8b	dir,
8a	du
(8g	klei-
8a)	|
4b}	-nes,}
=16	=16
{(8g	{Gott
16b)	|
16a	mit
8g	dir,
8f#	du
(8e	fei-
8f#)	|
4g}	-nes,}
=17	=17
{(4dd	{su2-
8g)	|
8a	-sses
4b	Ta2ub-
8a}	-chen.}
8r	.
=19	=19
{8B	{Blu2-
8e	-hen
8g	Ro-
8f#	-sen
8e	frisch
8d#	und
8f#	Flie-
8e}	-der,}
=20	=20
{8dn	{dann
8g	wohl
8b	se-
8a	-hen
8g	wir
8f#	uns
(8a	wie-
8g)}	-der.}
=21	=21
{(8b	{Gott
16dd)	|
16cc	mit
8b	dir,
8a	du
(8g	klei-
16b	|
16a	|
8g)	|
8f#}	-nes,}
=22	=22
{(8e	{Gott
16f#)	|
16g	mit
8a	dir,
8d	du
(8b	fei-
16a	|
16g	|
8f#)	|
8a}	-nes,}
=23	=23
{(4dd	{su2-
8g)	|
8a	-sses
(4b	Ta2ub-
4a)	|
=24	=24
4.g}	-chen}
8r	.
2r	.
*-	*-
